img/icons/Night.svg

<svg width="30" height="30" viewBox="0 0 30 30" fill="none" xmlns="http://www.w3.org/2000/svg">
<path d="M25.6101 10.6101V4.38992H19.3899L15 0L10.6101 4.38992H4.38992V10.6101L0 15L4.38992 19.3899V25.6101H10.6101L15 30L19.3899 25.6101H25.6101V19.3899L30 15L25.6101 10.6101ZM15 22.9576C13.8196 22.9576 12.6923 22.6923 11.6844 22.2281C14.4164 20.9682 16.3263 18.2096 16.3263 15C16.3263 11.7905 14.4164 9.03183 11.6844 7.77188C12.6923 7.30769 13.8196 7.04244 15 7.04244C19.3899 7.04244 22.9576 10.6101 22.9576 15C22.9576 19.3899 19.3899 22.9576 15 22.9576Z" fill="white"/>
</svg>

<svg xmlns="http://www.w3.org/2000/svg" width="30" height="30" fill="none"><path fill="#fff" d="M25.61 10.61V4.39h-6.22L15 0l-4.39 4.39H4.39v6.22L0 15l4.39 4.39v6.22h6.22L15 30l4.39-4.39h6.22v-6.22L30 15l-4.39-4.39ZM15 22.958a7.924 7.924 0 0 1-3.316-.73c2.732-1.26 4.642-4.018 4.642-7.228s-1.91-5.968-4.642-7.228A7.924 7.924 0 0 1 15 7.042c4.39 0 7.958 3.568 7.958 7.958 0 4.39-3.568 7.958-7.958 7.958Z"/></svg>
